icons/1_Primary/AOL.svg

<svg width="1024" height="1024" viewBox="0 0 1024 1024" fill="none" xmlns="http://www.w3.org/2000/svg">
<g clip-path="url(#clip0_2_1488)">
<path d="M512 1024C794.77 1024 1024 794.77 1024 512C1024 229.23 794.77 0 512 0C229.23 0 0 229.23 0 512C0 794.77 229.23 1024 512 1024Z" fill="#56595B"/>
<path d="M538.76 432.889C601.91 432.889 632.23 482.819 632.23 525.529C632.23 568.239 601.9 618.189 538.75 618.189C475.6 618.189 445.26 568.249 445.26 525.529C445.26 482.809 475.58 432.889 538.74 432.889M538.74 569.519C561.23 569.519 580.31 550.969 580.31 525.529C580.31 500.089 561.23 481.569 538.74 481.569C516.25 481.569 497.14 500.089 497.14 525.529C497.14 550.969 516.23 569.519 538.74 569.519ZM661.57 380.869H714.17V613.319H661.57V380.869ZM777.02 545.049C757.73 545.049 742.1 560.719 742.1 579.999C742.1 599.279 757.74 614.949 777.02 614.949C796.3 614.949 811.99 599.289 811.99 579.999C811.99 560.709 796.32 545.049 777.02 545.049ZM350.39 380.869H303.55L211.99 613.319H274.03L286.3 579.729H367.03L378.33 613.319H441.01L350.38 380.869H350.39ZM302.64 532.569L326.99 451.529L351.33 532.579H302.64V532.569Z" fill="white"/>
</g>
<defs>
<clipPath id="clip0_2_1488">
<rect width="1024" height="1024" fill="white"/>
</clipPath>
</defs>
</svg>

<svg xmlns="http://www.w3.org/2000/svg" width="1024" height="1024" fill="none">
   <g clip-path="url(#a)">
      <path fill="#56595B" d="M512 1024c282.77 0 512-229.23 512-512S794.77 0 512 0 0 229.23 0 512s229.23 512 512 512Z"/>
      <path fill="#fff" d="M538.76 432.889c63.15 0 93.47 49.93 93.47 92.64s-30.33 92.66-93.48 92.66c-63.15 0-93.49-49.94-93.49-92.66s30.32-92.64 93.48-92.64m0 136.63c22.49 0 41.57-18.55 41.57-43.99s-19.08-43.96-41.57-43.96c-22.49 0-41.6 18.52-41.6 43.96s19.09 43.99 41.6 43.99Zm122.83-188.65h52.6v232.45h-52.6v-232.45Zm115.45 164.18c-19.29 0-34.92 15.67-34.92 34.95s15.64 34.95 34.92 34.95 34.97-15.66 34.97-34.95c0-19.29-15.67-34.95-34.97-34.95Zm-426.63-164.18h-46.84l-91.56 232.45h62.04l12.27-33.59h80.73l11.3 33.59h62.68l-90.63-232.45h.01Zm-47.75 151.7 24.35-81.04 24.34 81.05h-48.69v-.01Z"/>
   </g>
   <defs>
      <clipPath id="a">
         <path fill="#fff" d="M0 0h1024v1024H0z"/>
      </clipPath>
   </defs>
</svg>
